X: 10999
T: Drunken Sailor
R: reel
M: 4/4
K: Edorian
B2BB B2BB|B2E2 G2B2|A2AA A2AA|A2D2 F2A2|
B2BB B2BB|B2c2 d2e2|d2B2 A2F2|E4 E4|
B2BB B2BB|B2E2 G2B2|A2AA A2AA|A2D2 F2A2|
B2BB B2BB|B2c2 d2e2|d2B2 A2F2|E4 E4||

